dist/img/communtity.svg

<svg width="64" height="64" viewBox="0 0 64 64" fill="none" xmlns="http://www.w3.org/2000/svg">
<path opacity="0.8" d="M33.4221 33.46C32.6561 32.629 31.3441 32.629 30.5791 33.46L25.3511 39.137C23.6401 40.995 24.9571 44 27.4831 44H36.5171C39.0431 44 40.3601 40.995 38.6491 39.137L33.4221 33.46Z" fill="#216E7A"/>
<path opacity="0.8" d="M41 35C42.6569 35 44 33.6569 44 32C44 30.3431 42.6569 29 41 29C39.3431 29 38 30.3431 38 32C38 33.6569 39.3431 35 41 35Z" fill="#216E7A"/>
<path opacity="0.8" d="M23 35C24.6569 35 26 33.6569 26 32C26 30.3431 24.6569 29 23 29C21.3431 29 20 30.3431 20 32C20 33.6569 21.3431 35 23 35Z" fill="#216E7A"/>
<path opacity="0.8" d="M32 31C33.6569 31 35 29.6569 35 28C35 26.3431 33.6569 25 32 25C30.3431 25 29 26.3431 29 28C29 29.6569 30.3431 31 32 31Z" fill="#216E7A"/>
<path d="M45 8.10498C39.2 8.10498 34.078 11.965 32 17.503C29.922 11.965 24.8 8.10498 19 8.10498C11.28 8.10498 5 14.779 5 22.982C5 39.001 18.418 49.747 26.417 54.727C28.139 55.799 30.069 56.335 32 56.335C33.931 56.335 35.861 55.799 37.583 54.727C45.582 49.747 59 39.001 59 22.982C59 14.779 52.72 8.10498 45 8.10498ZM36.526 53.03C33.734 54.768 30.266 54.766 27.474 53.03C19.828 48.269 7 38.034 7 22.982C7 15.881 12.383 10.105 19 10.105C24.917 10.105 30.017 14.846 30.861 21.132L30.978 22H33.022L33.139 21.133C33.983 14.847 39.083 10.105 45 10.105C51.617 10.105 57 15.881 57 22.982C57 38.034 44.172 48.269 36.526 53.03Z" fill="#216E7A"/>
<path d="M46 13V15C49.309 15 52 17.691 52 21H54C54 16.589 50.411 13 46 13Z" fill="#216E7A"/>
<path d="M46 17V19C47.103 19 48 19.897 48 21H50C50 18.794 48.206 17 46 17Z" fill="#216E7A"/>
</svg>

<svg width="64" height="64" fill="none" xmlns="http://www.w3.org/2000/svg"><path opacity=".8" d="M33.422 33.46a1.933 1.933 0 00-2.843 0l-5.228 5.677C23.641 40.995 24.957 44 27.483 44h9.034c2.526 0 3.843-3.005 2.132-4.863l-5.227-5.677zM41 35a3 3 0 100-6 3 3 0 000 6zm-18 0a3 3 0 100-6 3 3 0 000 6zm9-4a3 3 0 100-6 3 3 0 000 6z" fill="#216E7A"/><path d="M45 8.105c-5.8 0-10.922 3.86-13 9.398-2.078-5.538-7.2-9.398-13-9.398-7.72 0-14 6.674-14 14.877 0 16.019 13.418 26.765 21.417 31.745A10.545 10.545 0 0032 56.335c1.931 0 3.861-.536 5.583-1.608C45.582 49.747 59 39.001 59 22.982c0-8.203-6.28-14.877-14-14.877zM36.526 53.03a8.513 8.513 0 01-9.052 0C19.828 48.269 7 38.034 7 22.982c0-7.101 5.383-12.877 12-12.877 5.917 0 11.017 4.741 11.861 11.027l.117.868h2.044l.117-.867c.844-6.286 5.944-11.028 11.861-11.028 6.617 0 12 5.776 12 12.877 0 15.052-12.828 25.287-20.474 30.048z" fill="#216E7A"/><path d="M46 13v2c3.309 0 6 2.691 6 6h2c0-4.411-3.589-8-8-8z" fill="#216E7A"/><path d="M46 17v2c1.103 0 2 .897 2 2h2c0-2.206-1.794-4-4-4z" fill="#216E7A"/></svg>
